X:1
T:The Well-Tempered Clavier Part II Praeludium XIII
T:BWV 882
T:J. S. Bach
%%score { ( 1 4 ) | ( 2 3 ) }
L:1/8
M:none
K:F#
V:1 treble nm="Harp"
V:4 treble 
V:2 bass 
V:3 bass 
V:1
 c3/2(3B/4A/4G/4{G} F3 z/ f/ | e3/2f/4g/4 c3 z/ f/ | B>d G>B E>c | A/c/F/G/ A/F/c/A/ F/A/G/F/ | %4
 G/c/E/F/ G/F/c/G/ E/G/F/E/ | F/A/D/E/ F/D/A/F/ D/F/E/D/ | E/G/C/D/ E/C/G/E/ C/B/A/G/ | %7
 A/c/F/G/ A/F/c/A/ F/A/G/F/ | D/A/D/E/ ^^F/D/A/F/ D/c/^B/A/ | ^B/d/G/A/ B/G/d/B/ G/A/G/F/ | %10
 E/^B/E/^^F/ ^^G/E/B/G/ E/d/c/B/ | c>A f2- f3/2(3e/4d/4c/4 | d>^B g2- g3/2(3f/4e/4d/4 | %13
 e>c a3/2(3g/4f/4e/4 d>f |{c} ^B3/2(3d/4e/4f/4 g>B c>G | A3/2(3G/4F/4E/4 D>c G>^B | %16
 c/G/c/d/ e/c/g/e/ c/e/d/c/ | d/g/G/A/ ^B/G/d/B/ G/f/e/d/ | c/G/c/d/ e/c/g/e/ c/b/a/g/ | %19
 f3/2(3B/4A/4G/4 F3 z/ f/ | e3/2f/4g/4 c2- c/d/c/B/ | B/4A/4B/4A/4B/4A/4G/4F/4 =e>c A>e | %22
 d/f/B/c/ d/B/f/d/ B/d/c/B/ | c/f/A/B/ c/A/f/c/ A/c/B/A/ | B/d/G/A/ B/G/d/B/ G/B/A/G/ | %25
 A>c d/4c/4d/4c/4d/4c/4^B/4c/4 d/4c/4d/4c/4d/4c/4B/4c/4 | %26
 G>c d/4c/4d/4c/4d/4c/4^B/4c/4 d/4c/4d/4c/4d/4c/4B/4c/4 | F>c a>c c/4^B/4c/4B/4c/4B/4c/ | %28
 c3 z/4 c/4d/4e/4 f/4e/4f/4e/4f/4e/4d/4e/4 | f/c/F/G/ A/F/c/A/ =E/G/F/E/ | %30
 D3 z/4 d/4^^c/4d/4 e/4d/4e/4d/4e/4d/4c/4d/4 | e/B/E/F/ G/E/B/G/ D/F/E/D/ | %32
 ^^C3/2D/4E/4 A,2- A,/G/F/E/ | D/F/A/F/ d/A/f/d/ A/d/^^c/^B/ | ^^c/e/A/^B/ c/A/g/e/ c/=b/a/g/ | %35
 f/a/d/e/ f/d/a/f/ d/f/e/d/ | e/a/A/^B/ ^^c/A/e/c/ A/g/f/e/ | %37
 f>^^c d3/2(3F/4E/4D/4 A/4^^G/4A/4G/4A/4G/4^^F/4G/4 | A/E/A/^B/ c/A/e/c/ a/g/f/e/ | %39
 d/^^c/d z z/4 d/4e/4^^f/4 g>g | g/e/^^c/d/ e/c/G/B/{D} ^^C>B | A3/2(3G/4F/4E/4 D3 z/ d/ | %42
{d} ^^c3/2(3d/4e/4f/4 g3 z/ a/ |{a} g>e d/4^^c/4B/4c/4d/4c/4d/4c/4 d/4c/4d/4c/4d | %44
 d/A/F/G/ A/F/d/A/ F/G/F/E/ | ^^F/d/F/G/ A/F/d/A/ F/A/G/F/ | G/d/G/A/ B/G/d/B/ G/B/A/G/ | %47
 A/d/A/B/ c/A/=e/c/ A/c/B/A/ | B>^^F G>B d3/2(3g/4f/4e/4 | f>^^F G>^B d3/2(3f/4e/4d/4 | %50
 e>^^F G>c e3/2(3G/4^F/4E/4 | F>A D>c c/4B/4c/4B/4c/4B/4A/4B/4 | c/G/E/F/ G/E/c/G/ E/F/E/D/ | %53
 C/G/E/F/ G/E/c/G/ E/G/F/E/ | F/c/F/G/ A/F/c/A/ F/A/G/F/ | C/G/E/F/ G/E/c/G/ E/G/F/E/ | %56
 A/c/4B/4A/4G/4F/4E/4 F3 z/ f/ | e3/2f/4g/4 c3 z/ f/ | B>d G>B E>c | A/c/F/G/ A/F/c/A/ F/=e/d/c/ | %60
 d/f/B/c/ d/B/f/d/ A/c/B/A/ | G/d/G/A/ ^B/G/d/B/ G/f/e/d/ | e/g/c/d/ e/c/g/e/ =B/d/c/B/ | %63
 A/e/A/^B/ ^^c/A/e/c/ A/g/f/e/ | f>d b2- b3/2(3a/4g/4f/4 | g>b c2- c3/2(6:4:4(1:1:2d/8e/8f/4g/4 | %66
 a>g f/4e/4f/4e/4f/4e/4f/4e/4 f/4e/4f/4e/4f | f/a/c/e/ f/c/a/f/ c/g/f/e/ | %68
 f/c/A/B/ c/A/f/c/ A/B/A/G/ | F/=A/^B,/E/ F/B,/A/F/ B,/G/F/E/ | F/=A/c/B/ A/c/F/A/ c/A/c/e/ | %71
 f/=a/d/e/ f/d/a/f/ d/f/e/d/ | [eg]2 z z/ e/ f3/4e/8d/8c/4B/4A/4G/4 | %73
 F>d F2- F/4E/4F/4E/4F/4E/4[FF]/ | [A,CF]6 |] %75
V:2
 F,>G, A,>G, A,>F, | C>B, A,>D C>D | G,>A, B,>G, C>C, | F,>C C>C A,>C | =F,>C C>C G,>C | %5
 D,>C C>C F,>^B, | C,3/2G,/4A,/4 B,>G, E,>C, | F,>C, F,,2 z2 | ^^F,3/2A,/4^B,/4 C>A, F,>D, | %9
 G,>D, G,,2 z2 | ^^G,3/2^B,/4C/4 D>B, G,>E, | A,2- A,3/2(3A,/4^B,/4C/4 D>F | %12
 ^B,2- B,3/2(3C/4B,/4A,/4 B,>G, | C/C,/D,/E,/ F,/F,,/F,/E,/ F,/F,,/F,/E,/ | %14
 F,2- F,3/2(3D,/4E,/4F,/4 E,3/2(3C,/4D,/4E,/4 | F,>D, G,3/2(3A,/4G,/4F,/4 G,>G,, | %16
 C,3/2(3E,/4D,/4C,/4 G,3 z/ C/ | ^B,3/2C/4D/4 G,2- G,/A,/G,/F,/ | E,3/2D,/4C,/4 B,>G, E,>C | %19
 A,/C/F,/G,/ A,/F,/C/A,/ F,/A,/G,/F,/ | G,/C/C,/D,/ E,/C,/G,/E,/ C,/B,/A,/G,/ | %21
 F,/C,/F,/G,/ A,/F,/C/A,/ F,/=E/D/C/ | B,>F, F,>B, D>F, | A,>F, F,>A, C>F, | G,>F, F,>G, B,>E, | %25
 F,/C/F,/G,/ A,/F,/C/A,/ F,/A,/G,/F,/ | E,/C/E,/F,/ G,/E,/C/G,/ E,/G,/F,/E,/ | %27
 D,/C/D,/E,/ F,/D,/C/F,/ D,/F,/E,/D,/ | C,/C/C,/D,/ E,/C,/G,/E,/ B,,/D,/C,/B,,/ | %29
 A,,3 z/4 F,/4G,/4A,/4 B,/4A,/4B,/4A,/4B,/4A,/4G,/4A,/4 | %30
 B,/F,/B,,/C,/ D,/B,,/F,/D,/ A,,/C,/B,,/A,,/ | %31
 G,,3 z/4 G,/4^^F,/4G,/4 A,/4^^G,/4A,/4G,/4A,/4G,/4F,/4G,/4 | %32
 A,/E,/A,,/^B,,/ ^^C,/A,,/E,/C,/ G,,/=B,,/A,,/G,,/ | F,,>A, A,>F, F,>D, | E,,>A, A,>E, E,>^^C, | %35
 D,,>A, A,>D, D,>^B,, | ^^C,,>A, A,>^^C, C,>A,, | D,/A,/D,/E,/ F,/D,/A,/F,/ D,/F,/E,/D,/ | %38
 C,/A,/C,/D,/ E,/C,/A,/E,/ C,/E,/D,/C,/ | B,,/A,/B,,/C,/ D,/B,,/G,/D,/ B,,/D,/C,/B,,/ | %40
 A,,/A,/A,,/^B,,/ ^^C,/A,,/E,/C,/ G,,/=B,,/A,,/G,,/ | F,,/A,,/D,/E,/ F,/D,/F,/G,/ A,/F,/B,/B,/ | %42
 B,2- B,3/2(3A,/4G,/4F,/4 E,>^^C | D>G, A,3/2(3B,/4A,/4G,/4 A,>A,, | D,>D D>D A,>D | %45
 C,>D D>D A,>D | B,,>D D>D B,>D | ^^F,>D D>D C>D | G,/D,/G,,/A,,/ B,,/G,,/D,/B,,/ G,/C,/^B,,/A,,/ | %49
 ^B,,/G,/B,,/C,/ D,/B,,/G,/D,/ B,,/D,/C,/B,,/ | C,/G,/C,/D,/ =F,/C,/G,/F,/ C,/F,/D,/C,/ | %51
 D,/G,/D,/E,/ F,/D,/A,/F,/ D,/F,/E,/D,/ | E,/G,/C/G,/ E,/G,/C,/E,/ G,/C,/G,/A,/ | %53
 B,3/2(3C/4B,/4A,/4 B,2- B,3/2(3G,/4A,/4B,/4 | A,/F,/A,/G,/ F,/A,/C,/F,/ A,/F,/G,/A,/ | %55
 E,>C C,3/2(3C,/4D,/4E,/4 F,/4E,/4F,/4E,/4F,/4E,/4D,/4E,/4 | F,>G, A,>G, A,>F, | C>B, A,>D C>D | %58
 G,>A, B,>G, C>C, | F,3/2=E,/4D,/4 E,>C, A,,>F,, | B,,>F, B,2 z2 | ^B,,3/2D,/4E,/4 F,>D, B,,>G,, | %62
 C,>G, C2 z2 | ^^C,3/2E,/4F,/4 G,>E, C,>A,, | D,2- D,3/2(3D,/4E,/4F,/4 G,>B, | %65
 E,2- E,3/2(3F,/4E,/4D,/4 E,>C, | F,>B, C3/2(3G,/4A,/4B,/4 C,>B, | F,>C C>C A,>C | %68
 =E,>C C>E, E,>D, | D,>=A, A,>A, F,>A, | C,>F, F,>C, C,>^B,, | ^B,,>^B, B,>D G,>F, | %72
 E,2 z z/ B,/ A, z | z z/ A,/ G,>A, B,2 | F,,6 |] %75
V:3
 x6 | x6 | x6 | x6 | x6 | x6 | x6 | x6 | x6 | x6 | x6 | x6 | x6 | x6 | x6 | x6 | x6 | x6 | x6 | %19
 x6 | x6 | x6 | x6 | x6 | x6 | x6 | x6 | x6 | x6 | x6 | x6 | x6 | x6 | x6 | x6 | x6 | x6 | x6 | %38
 x6 | x6 | x6 | x6 | x6 | x6 | x6 | x6 | x6 | x6 | x6 | x6 | x6 | x6 | x6 | x6 | x6 | x6 | x6 | %57
 x6 | x6 | x6 | x6 | x6 | x6 | x6 | x6 | x6 | z4 C,2 | x6 | x6 | x6 | x6 | x6 | B,,2 z2 z2 | %73
 z z/ ^B,,/ C,4 | x6 |] %75
V:4
 x6 | x6 | x6 | x6 | x6 | x6 | x6 | x6 | x6 | x6 | x6 | x6 | x6 | x6 | x6 | x6 | x6 | x6 | x6 | %19
 x6 | x6 | x6 | x6 | x6 | x6 | x6 | x6 | x6 | x6 | x6 | x6 | x6 | x6 | x6 | x6 | x6 | x6 | x6 | %38
 x6 | x6 | x6 | x6 | x6 | x6 | x6 | x6 | x6 | x6 | x6 | x6 | x6 | x6 | x6 | x6 | x6 | x6 | x6 | %57
 x6 | x6 | x6 | x6 | x6 | x6 | x6 | x6 | x6 | x6 |[I:staff +1] F,3/2[I:staff -1] z/ z2 z2 | x6 | %69
 x6 | x6 | x6 | [Gc]2 z z/ [Gc]/ [Gc]/ z/ z | z z/ F/ C4 | x6 |] %75

